X:1
T:F I R S T  S T E P
T:F I R S T   S T E P
T:from the motion picture "Interstellar"
T:Arranged by Kyle Landry Composed by Hans Zimmer
T:Score
C:Arranged by Kyle Landry Composed by Hans Zimmer
Z:Score
%%score { 1 | ( 2 4 ) | ( 3 5 ) }
L:1/8
Q:1/4=80
M:3/4
K:C
V:1 treble nm="Piano" snm="Pno."
V:2 treble 
V:4 treble 
V:3 bass 
V:5 bass 
V:1
"^Andante con moto" z6 | z6 | z6 | z6 |"^L.H." z2!p! [A,A]4- | [A,A]6 | [B,B]6- | [B,B]6 | %8
 ([A,A]2 [B,B]2 [Cc]2 | [B,B]2 [A,A]2 [B,B]2 | [Cc]6 | [B,B]6) | z2 e4 | z2 e4 | z2 e4 | z2 e4 | %16
 z2 e4 | z2 e4 | z2 e4 | z2 e4 | z2 e4 | z2 e4 | z2 e4 | z2 e4 | z2 e4 | z2 e4 | z6 | z6 | %28
"^29" z6 | z6 | z6 | z6 | z6 | z6 | z6 | z6 | z6 | z6 | z6 | z6 | z6 | z6 | z6 | z6 | %44
"^rit." z6[Q:1/4=77] | %45
[M:4/4][Q:1/4=80] z8[Q:1/4=83][Q:1/4=85][Q:1/4=82][Q:1/4=78][Q:1/4=75][Q:1/4=72][Q:1/4=70][Q:1/4=67][Q:1/4=63][Q:1/4=54] | %46
[M:3/4][Q:1/4=45] z6[Q:1/4=55][Q:1/4=59][Q:1/4=63][Q:1/4=65][Q:1/4=68][Q:1/4=70][Q:1/4=72][Q:1/4=80][Q:1/4=90][Q:1/4=110] | %47
[Q:1/4=80] z6 | %48
 z6[Q:1/4=95][Q:1/4=85][Q:1/4=80][Q:1/4=75][Q:1/4=85][Q:1/4=95][Q:1/4=110][Q:1/4=120] | %49
[Q:1/4=80] z6 || %50
[M:12/8][Q:1/4=60]"^Tempo I ( = )" z12[Q:1/4=55][Q:1/4=60][Q:1/4=65][Q:1/4=75][Q:1/4=80][Q:1/4=85][Q:1/4=90][Q:1/4=100][Q:1/4=100] | %51
 z12 | z12 | z12 | z12 | z6 e'6 | z3 e'3- e'6 | z3 e'3- e'6 | z12 | z12 | z12 | z12 | z12 | z12 | %64
 z12 | z12 | z12 | z12 | z12 | z12 | z12 | z12 | z12 | z12 |[Q:1/4=103] z12[Q:1/4=102][Q:1/4=101] | %75
[Q:1/4=100] z12[Q:1/4=98][Q:1/4=96] | z12[Q:1/4=94] | %77
"^rit."[Q:1/4=90] z12[Q:1/4=88][Q:1/4=86][Q:1/4=84][Q:1/4=82][Q:1/4=78][Q:1/4=72][Q:1/4=60][Q:1/4=50] || %78
[M:3/4][Q:1/4=72]"^Adagio con moto""^79" z6 | z6 | z6 | z6 | z6 | z6 | z6 | z6 | %86
[Q:1/4=92]"^piu mosso" z6 | z6 | z6 | z6 | z6 | z6 | z6 | z6 | z6 | z6 | z6 | %97
 z6[Q:1/4=88][Q:1/4=86] | z6 | z6 |[Q:1/4=84] z6[Q:1/4=82] | z6[Q:1/4=80][Q:1/4=78][Q:1/4=73] | %102
[Q:1/4=75] z6[Q:1/4=77][Q:1/4=80][Q:1/4=77][Q:1/4=75][Q:1/4=72] | %103
[M:4/4][Q:1/4=70] z8[Q:1/4=67][Q:1/4=64][Q:1/4=61]"_molto rit."[Q:1/4=57][Q:1/4=50][Q:1/4=45] | %104
[Q:1/4=55] z8[Q:1/4=60][Q:1/4=57][Q:1/4=55][Q:1/4=53] | %105
[Q:1/4=48] z8[Q:1/4=44][Q:1/4=60][Q:1/4=80] || %106
[M:3/4][Q:1/4=50]"^107""^Slower" z6[Q:1/4=60][Q:1/4=65][Q:1/4=70][Q:1/4=75][Q:1/4=77] | %107
[Q:1/4=80] z6 | z6 | z6 | z6 | z6 | z6 | z6 |[M:4/4] z8[Q:1/4=78][Q:1/4=76] | %115
 z8[Q:1/4=74][Q:1/4=68][Q:1/4=58] |[M:3/4]"^117""^Adagio"[Q:1/4=60] z6[Q:1/4=63] | z6 | z6 | z6 | %120
[Q:1/4=65] z6 | z6[Q:1/4=67] |[Q:1/4=70] z6 |[Q:1/4=73] z6 |[Q:1/4=76] z6 | z6 |[Q:1/4=79] z6 | %127
"^poco accel." z6 |[Q:1/4=82] z6 |[Q:1/4=85] z6[Q:1/4=82] | z6 | %131
[Q:1/4=80] z6[Q:1/4=75][Q:1/4=70][Q:1/4=84] ||"^133""^Tempo I" z6 | z6 | z6 | z6[Q:1/4=86] | z6 | %137
 z6 | z6[Q:1/4=90] |"^accel." z6[Q:1/4=94][Q:1/4=97][Q:1/4=100][Q:1/4=104][Q:1/4=108] | %140
"^141""^Allegretto  = 112"[Q:1/4=112] z6 | z6 | z6 | z6 | z6 | %145
 z6[Q:1/4=110][Q:1/4=108][Q:1/4=106] | z6 |[Q:1/4=104] z6[Q:1/4=98][Q:1/4=95] | %148
[M:4/4] z8[Q:1/4=94][Q:1/4=93][Q:1/4=92][Q:1/4=90] | %149
 z8[Q:1/4=80][Q:1/4=76][Q:1/4=72][Q:1/4=68][Q:1/4=65][Q:1/4=60][Q:1/4=56][Q:1/4=50][Q:1/4=40][Q:1/4=25][Q:1/4=14] | %150
[Q:1/4=35] z8[Q:1/4=40][Q:1/4=55][Q:1/4=70][Q:1/4=85][Q:1/4=100][Q:1/4=12] | %151
[Q:1/4=55] z8[Q:1/4=50] ||[M:3/4][Q:1/4=53]"^153""^Lento" z6 | z6 | z6 | z6 | z6 | z6 | z6 | z6 | %160
[Q:1/4=25]"^161" z6[Q:1/4=33][Q:1/4=40][Q:1/4=50][Q:1/4=55][Q:1/4=62] | z6 |[M:4/4] z8 | z8 | z8 | %165
 z8 | z8[Q:1/4=60][Q:1/4=58] | %167
[Q:1/4=58]"^rit." z8[Q:1/4=56][Q:1/4=54][Q:1/4=53][Q:1/4=52][Q:1/4=50][Q:1/4=48][Q:1/4=46] | %168
[Q:1/4=45] z8[Q:1/4=44][Q:1/4=43][Q:1/4=42][Q:1/4=40][Q:1/4=38][Q:1/4=36][Q:1/4=35] | %169
[Q:1/4=34] z8[Q:1/4=33][Q:1/4=31][Q:1/4=30][Q:1/4=27][Q:1/4=23][Q:1/4=15][Q:1/4=50][Q:1/4=48][Q:1/4=47][Q:1/4=44][Q:1/4=40][Q:1/4=38] | %170
[Q:1/4=36] z8[Q:1/4=34][Q:1/4=32][Q:1/4=30][Q:1/4=27][Q:1/4=26][Q:1/4=25][Q:1/4=22][Q:1/4=15][Q:1/4=12] | %171
[Q:1/4=20] z8 |] %172
V:2
!pp! z2 E"_misterioso"C EC | EC EC EC | EC EC EC | EC EC EC | EC EC EC | EC EC EC | ED ED ED | %7
 ED ED ED | EC ED ED | ED ED ED | ED ED ED | ED ED ED |!p! A6 | A6 | B6 | B6 | c6 | c6 | d6 | %19
 d4 B2 | A2"_cresc. poco a poco" A2 A2 | A2 A2 A2 | B2 B2 B2 | B2 B2 B2 |!mf! c2 c2 c2 | c2 c2 c2 | %26
 d2 e2 d2 |!<(! [DGBd]2 [EGBe]2 [GBdg]2!<)! |!sfz! !arpeggio![Acea]2!>(! [eae']2 [Acea]2!>)! | %29
 !arpeggio![Acea]2 [eae']2 [Acea]2 | !arpeggio![Bdeb]2 [ebe']2 [Beb]2 | %31
 !arpeggio![Bdeb]2 [ebe']2 [Beb]2 | [ceac']2 [eae']2 [ceac']2 | [ceac']2 [eae']2 [ceac']2 | %34
 [degd']2 [egbe']2 [dgbd']2 | [dgbd']2 [egbe']2 [Beb]2 | [Acea]2 [eac'e']2 [Acea]2 | %37
 [Acea]2 [eac'e']2 [Acea]2 | [Bdeb]2 [egbe']2 [Bdeb]2 | [Bdeb]2 [egbe']2 [Bdeb]2 | %40
 [ceac']2 [eac'e']2 [ceac']2 | [ceac']2 [eac'e']2 [ceac']2 | !arpeggio![degbd']2 [egbe']3 [dd'] | %43
 [dgbd']2 [egbe']2 !arpeggio![Bdeb]2 | !arpeggio![Acea]>d e/d/c/B/ c/B/A/G/ | %45
[M:4/4] A/E/D/E/ D/C/B,/A,/ B,/A,/G,/A,/[K:bass] !tenuto!F,/!tenuto!G,/!tenuto!E,/!tenuto!F,/ | %46
[M:3/4] !>!E,2 E,/4A,/4B,/4D/4[I:staff +1]E/4A/4B/4d/4[I:staff -1][K:treble] e/4a/4b/4d'/4!8va(![I:staff +1]e'/4a'/4b'/4d''/4-!8va)! | %47
[I:staff -1] z6 | !>!E,2 z4 | x6 ||[M:12/8] z!p! cc ccc ccc ccc | ccc ccc ccc ccc | %52
 ccc ccc ccc ccc | BBB BBB ccc d/4B/4G/4D/4d/4B/4G/4D/4d/4B/4G/4D/4 | %54
!mp! e/4c/4A/4E/4e/4c/4A/4E/4e/4c/4A/4E/4 e/4c/4A/4E/4e/4c/4A/4E/4e/4c/4A/4E/4 e/4c/4A/4E/4e/4c/4A/4E/4e/4c/4A/4E/4 e/4c/4A/4E/4e/4c/4A/4E/4e/4c/4A/4E/4 | %55
!mp! e/4B/4A/4E/4e/4B/4A/4E/4e/4B/4A/4E/4 e/4B/4A/4E/4e/4B/4A/4E/4e/4B/4A/4E/4 e/4B/4A/4E/4e/4B/4A/4E/4e/4B/4A/4E/4 e/4B/4A/4E/4e/4B/4A/4E/4e/4B/4A/4E/4 | %56
 e/4B/4A/4E/4e/4B/4A/4E/4e/4B/4A/4E/4 e/4B/4A/4E/4e/4B/4A/4E/4e/4B/4A/4E/4 e/4B/4A/4E/4e/4B/4A/4E/4e/4B/4A/4E/4 d/4B/4A/4E/4d/4B/4A/4E/4d/4B/4A/4E/4 | %57
 e/4B/4A/4E/4e/4B/4A/4E/4e/4B/4A/4E/4 e/4B/4A/4E/4e/4B/4A/4E/4e/4B/4A/4E/4 e/4B/4A/4E/4e/4B/4A/4E/4e/4B/4A/4E/4 g/4e/4B/4G/4g/4e/4B/4G/4g/4e/4B/4G/4 | %58
!f! a/4e/4c/4A/4a/4e/4c/4A/4a/4e/4c/4A/4 e'/4c'/4a/4e/4e'/4c'/4a/4e/4e'/4c'/4a/4e/4 a/4e/4c/4A/4a/4e/4c/4A/4a/4e/4c/4A/4 e'/4c'/4a/4e/4e'/4c'/4a/4e/4e'/4c'/4a/4e/4 | %59
 b/4e/4d/4B/4b/4e/4d/4B/4b/4e/4d/4B/4 e'/4b/4a/4e/4e'/4b/4a/4e/4e'/4b/4a/4e/4 b/4e/4d/4B/4b/4e/4d/4B/4b/4e/4d/4B/4 e'/4b/4a/4e/4e'/4b/4a/4e/4e'/4b/4a/4e/4 | %60
 c'/4a/4e/4c/4c'/4a/4e/4c/4c'/4a/4e/4c/4 e'/4b/4a/4e/4e'/4b/4a/4e/4e'/4b/4a/4e/4 c'/4a/4e/4c/4c'/4a/4e/4c/4c'/4a/4e/4c/4 e'/4b/4a/4e/4e'/4b/4a/4e/4e'/4b/4a/4e/4 | %61
 d'/4b/4a/4d/4d'/4b/4a/4d/4d'/4b/4a/4d/4 e'/4b/4a/4e/4e'/4b/4a/4e/4e'/4b/4a/4e/4 d'/4b/4a/4d/4d'/4b/4a/4d/4d'/4b/4a/4d/4 e'/4b/4a/4e/4e'/4b/4a/4e/4e'/4b/4a/4e/4 | %62
 a/4e/4c/4A/4a/4e/4c/4A/4a/4e/4c/4A/4 e'/4b/4a/4e/4e'/4b/4a/4e/4e'/4b/4a/4e/4 a/4e/4c/4A/4a/4e/4c/4A/4a/4e/4c/4A/4 e'/4b/4a/4e/4e'/4b/4a/4e/4e'/4b/4a/4e/4 | %63
 b/4e/4d/4B/4b/4e/4d/4B/4b/4e/4d/4B/4 e'/4b/4a/4e/4e'/4b/4a/4e/4e'/4b/4a/4e/4 b/4e/4d/4B/4b/4e/4d/4B/4b/4e/4d/4B/4 e'/4b/4a/4e/4e'/4b/4a/4e/4e'/4b/4a/4e/4 | %64
 c'/4a/4e/4c/4c'/4a/4e/4c/4c'/4a/4e/4c/4 e'/4b/4a/4e/4e'/4b/4a/4e/4e'/4b/4a/4e/4 c'/4a/4e/4c/4c'/4a/4e/4c/4c'/4a/4e/4c/4 e'/4b/4a/4e/4e'/4b/4a/4e/4e'/4b/4a/4e/4 | %65
 d'/4b/4a/4d/4e'/4b/4a/4e/4d'/4b/4a/4d/4 e'/4b/4a/4e/4d'/4b/4a/4d/4e'/4b/4a/4e/4!<(! d'/4b/4a/4d/4e'/4b/4a/4e/4g'/4e'/4b/4g/4!8va(! g'/4e'/4b/4a/4a'/4e'/4b/4a/4b'/4e'/4d'/4b/4!<)!!8va)! | %66
!ff!!8va(! c''/4a'/4e'/4c'/4c''/4a'/4e'/4c'/4c''/4a'/4e'/4c'/4 c''/4a'/4e'/4c'/4c''/4a'/4e'/4c'/4c''/4a'/4e'/4c'/4 c''/4a'/4e'/4c'/4c''/4a'/4e'/4c'/4c''/4a'/4e'/4c'/4 b'/4e'/4d'/4b/4b'/4e'/4d'/4b/4b'/4e'/4d'/4b/4 | %67
 a'/4d'/4b/4a/4a'/4d'/4b/4a/4a'/4d'/4b/4a/4 g'/4d'/4b/4g/4g'/4d'/4b/4g/4g'/4d'/4b/4g/4 g'/4d'/4b/4g/4g'/4d'/4b/4g/4g'/4d'/4b/4g/4 g'/4d'/4b/4g/4g'/4d'/4b/4g/4f'/4d'/4b/4f/4!8va)! | %68
 e'/4c'/4b/4e/4e'/4c'/4b/4e/4e'/4c'/4b/4e/4 e'/4c'/4b/4e/4e'/4c'/4b/4e/4e'/4c'/4b/4e/4 d'/4c'/4b/4e/4d'/4c'/4b/4e/4d'/4c'/4b/4e/4 e'/4c'/4b/4e/4e'/4c'/4b/4e/4e'/4c'/4b/4e/4 | %69
"_dim." e'/4b/4a/4e/4e'/4b/4a/4e/4e'/4b/4a/4e/4 d'/4b/4a/4e/4d'/4b/4a/4e/4d'/4b/4a/4e/4 e'/4b/4a/4e/4e'/4b/4a/4e/4e'/4b/4a/4e/4 d'/4b/4a/4e/4d'/4b/4a/4e/4d'/4b/4a/4e/4 | %70
!f!!8va(! e'/4c'/4a/4e/4a'/4e'/4c'/4a/4a'/4e'/4c'/4a/4!8va)! e'/4c'/4a/4e/4c'/4a/4e/4c/4a/4e/4c/4A/4 a/4e/4c/4A/4e'/4c'/4a/4e/4e'/4c'/4a/4e/4 c'/4a/4e/4c/4c'/4a/4e/4c/4a/4e/4c/4A/4 | %71
 b/4e/4d/4B/4b/4e/4d/4B/4e'/4b/4g/4e/4 e'/4b/4g/4e/4e'/4b/4g/4e/4b/4g/4e/4B/4 b/4g/4e/4B/4b/4g/4e/4B/4e'/4b/4g/4e/4 e'/4b/4g/4e/4e'/4b/4g/4e/4b/4g/4e/4B/4 | %72
!mf! c'/4a/4e/4c/4c'/4a/4e/4c/4e'/4b/4a/4e/4 e'/4b/4a/4e/4e'/4b/4a/4e/4c'/4a/4e/4c/4 c'/4a/4e/4c/4c'/4a/4e/4c/4e'/4b/4a/4e/4 e'/4b/4a/4e/4e'/4b/4a/4e/4c'/4a/4e/4c/4 | %73
 d'/4g/4e/4d/4d'/4g/4e/4d/4e'/4b/4g/4e/4 e'/4b/4g/4e/4e'/4b/4g/4e/4d'/4b/4g/4d/4 d'/4b/4g/4d/4d'/4b/4g/4d/4e'/4b/4g/4e/4 e'/4b/4g/4e/4e'/4b/4g/4e/4b/4g/4e/4B/4 | %74
!mp! a/4e/4c/4A/4a/4e/4c/4A/4a/4e/4c/4A/4 a/4e/4c/4A/4a/4e/4c/4A/4a/4e/4c/4A/4 a/4e/4c/4A/4a/4e/4c/4A/4a/4e/4c/4A/4 a/4e/4c/4A/4a/4e/4c/4A/4a/4e/4c/4A/4 | %75
 a/4e/4d/4B/4a/4e/4d/4B/4a/4e/4d/4B/4 a/4e/4d/4B/4a/4e/4d/4B/4a/4e/4d/4B/4 a/4e/4d/4B/4a/4e/4d/4B/4a/4e/4d/4B/4 a/4e/4d/4B/4a/4e/4d/4B/4a/4e/4d/4B/4 | %76
 a/4e/4c/4B/4a/4e/4c/4B/4a/4e/4c/4B/4 a/4e/4c/4B/4a/4e/4c/4B/4a/4e/4c/4B/4 a/4e/4c/4A/4a/4e/4c/4A/4a/4e/4c/4A/4 a/4e/4c/4A/4a/4e/4c/4A/4a/4e/4c/4A/4 | %77
!>(! b/4e/4d/4B/4b/4e/4d/4B/4b/4e/4d/4B/4 b/4e/4d/4B/4b/4e/4d/4B/4b/4e/4d/4B/4 bbb bbb!>)! || %78
[M:3/4][K:treble+8]!p! (9:8:6c3/4C3/4E3/4 e3/4E3/4A3/4 z2/3 (9:8:2A3/4c3/4 | %79
 (9:8:6e3/4e3/4a3/4 e'3/4e3/4a3/4 z2/3 (9:8:2c3/4e3/4 | %80
 (9:8:6b3/4B3/4e3/4 e'3/4e3/4b3/4 z2/3 (9:8:2B3/4e3/4 | %81
 (9:8:6b3/4B3/4e3/4 e'3/4e3/4b3/4 z2/3 (9:8:2B3/4e3/4 | %82
 (9:8:6c'3/4c3/4e3/4 e'3/4e3/4a3/4 z2/3 (9:8:2c3/4e3/4 | %83
 (9:8:6c'3/4c3/4e3/4 e'3/4e3/4a3/4 z2/3 (9:8:2c3/4e3/4 | %84
 (9:8:6d'3/4d3/4e3/4 e'3/4e3/4g3/4 z2/3 (9:8:2d3/4b3/4 | %85
 (9:8:6d'3/4e3/4g3/4 e'3/4d3/4g3/4 z2/3 (9:8:2B3/4e3/4 | %86
!mp! (9:8:6a3/4A3/4e3/4 e'3/4e3/4a3/4 z2/3 (9:8:2A3/4e3/4 | %87
 (9:8:6a3/4A3/4e3/4 e'3/4e3/4a3/4 z2/3 (9:8:2A3/4e3/4 | %88
 (9:8:6b3/4B3/4e3/4 e'3/4e3/4b3/4 z2/3 (9:8:2B3/4e3/4 | %89
 (9:8:6e'3/4e3/4b3/4 b3/4B3/4e3/4 z2/3 (9:8:2e3/4b3/4 | %90
 (9:8:6c'3/4c3/4e3/4 e'3/4e3/4a3/4 z2/3 (9:8:2c3/4e3/4 | %91
 (9:8:6c'3/4c3/4e3/4 e'3/4e3/4a3/4 z2/3 (9:8:2c3/4e3/4 | %92
 (9:8:6d'3/4d3/4e3/4 e'3/4e3/4g3/4 z2/3 (9:8:2d3/4g3/4 | %93
 (9:8:6d'3/4d3/4g3/4 e'3/4e3/4g3/4 z2/3 (9:8:2B3/4e3/4 | %94
 (9:8:6a3/4A3/4e3/4 e'3/4e3/4a3/4 z2/3 (9:8:2c3/4e3/4 | %95
 (9:8:6a3/4A3/4e3/4 e'3/4e3/4a3/4 z2/3 (9:8:2A3/4e3/4 | %96
 (9:8:6b3/4B3/4e3/4 e'3/4e3/4b3/4 z2/3 (9:8:2B3/4e3/4 | %97
 (9:8:6b3/4B3/4e3/4 e'3/4e3/4b3/4 z2/3 (9:8:2B3/4e3/4 | (9:6:9c'ce e'ea c'ce | %99
 (9:8:6c'3/4c3/4e3/4 e'3/4e3/4a3/4 z2/3 (9:8:2c3/4e3/4 | %100
 (9:8:6d'3/4d3/4e3/4 e'3/4e3/4g3/4 z2/3 (9:8:2d3/4g3/4 | %101
 (9:8:6d'3/4d3/4g3/4 d'3/4e3/4g3/4 z2/3 (9:8:2g3/4b3/4 | %102
 (9:8:6a'3/4a3/4c'3/4 a'3/4a3/4c'3/4 z2/3 (9:8:2a3/4c'3/4 | %103
[M:4/4] (3a'c'f' (3a'c'f' (3a'c'f' (3a'c'f' | (3g'c'd' (3g'bd' (3g'bd' (3e'd'b | %105
 (3ged[K:treble] BG e2 c2 ||[M:3/4]!pp! ec"_freely" ec ec | ec ec ec | ec ec ec | ec ec ec | %110
 ed ed ed | ed ed ed | ec ed ed | ed ed ed |[M:4/4] ed ed ed ed | ed ed ed ed | %116
[M:3/4]!mp! [EA]2 [Ae]d [Ae]d | [Ae]A [Ae]d [Ae]d | [GB]G [Be]d [Ge]d | [GB]G [Ge]d ed | cA ed ed | %121
 cA e2 e2 |"_cresc." BA e2 d2 | d2 e2 B2 |!mf! A2 e2 A2 | A2 e2 A2 | B2 e2 B2 | B2 e2 B2 | %128
 c2 e2 c2 | c2 e2 c2 | d2 e2 d2 | [DGB]2 [EGB]2 [GBd]2 ||!f! [Ace]2 [eac']2 [Ace]2 | %133
 [Ace]2 [eac']2 [Ace]2 | [Bde]2 [egb]2 b2 | b2 e'2 b2 | c'2 e'2 a2 | c'2 e'2 d'2 | d'2 e'2 d'2 | %139
 d'2 e'2 g'2 |!ff!!8va(! a'2 e''2 a'2 | a'2 e''2 a'2 | b'2 e''2 b'2 | b'2 e''2 b'2 | %144
 c''2 e''2 c''2 | c''2 e''2 c''2 | d''2 e''2 d''2!8va)! |!8va(! d''e'' b'c'' a'b'!8va)! | %148
[M:4/4]!8va(! (12:8:48(1:1:4a'/4e'/4c'/4a/4(1:1:4g'/4d'/4b/4g/4(1:1:4f'/4c'/4a/4f/4!8va)! (1:1:36(12:8:4e'/4b/4g/4e/4(12:8:4d'/4a/4f/4d/4(12:8:4c'/4g/4e/4c/4 (12:8:24(1:1:4b/4f/4d/4B/4(1:1:4a/4e/4c/4A/4(1:1:4g/4d/4B/4G/4 (1:1:12(12:8:4f/4c/4A/4F/4(12:8:4e/4B/4G/4E/4(12:8:4d/4A/4F/4D/4 | %149
 (12:8:48(1:1:4c/4G/4E/4C/4(1:1:4B/4F/4D/4B,/4(1:1:4A/4E/4C/4A,/4[K:bass] (1:1:36(12:8:4G/4D/4B,/4G,/4(12:8:4F/4C/4A,/4F,/4(12:8:4E/4B,/4G,/4E,/4 (12:8:24(1:1:4D/4A,/4F,/4D,/4(1:1:4C/4G,/4E,/4C,/4(1:1:4B,/4F,/4D,/4B,,/4 (1:1:12(12:8:4A,/4E,/4C,/4A,,/4(12:8:4G,/4D,/4B,,/4G,,/4(12:8:4F,/4C,/4A,,/4F,,/4 | %150
 E,2 x4[K:treble][I:staff +1] e/4a/4b/4d'/4!8va(![I:staff -1]a'/4b'/4d''/4e''/4!8va)! | %151
 !>![D,E,^G,B,E]4 [e'e'']4 ||[M:3/4] z2 [ee']2 [cc']2 | z2 [dd']2 [Bb]2 | z2 [ee']2 [cc']2 | %155
 z2 [dd']2 [Bb]2 |!8va(! z2 [e'e'']2 [aa']2 | z2 [e'e'']2 [bb']2 | z2 [e'e'']2 [c'c'']2 | %159
 z2 [d'd'']2 [e'e'']2 | %160
{/a'e'd'} a2!8va)! !tenuto![EA]/!tenuto![DA]/[EA]/[DA]/ [EA]/[DA]/[EA]/[DA]/ | %161
 [EA]/[DA]/[EA]/[DA]/ [EA]/[DA]/[EA]/[DA]/ [EA]/[DA]/[EA]/[DA]/ | %162
[M:4/4]!mp! [EA]/[DA]/[EA]/[DA]/ [EA]/[DA]/[EA]/[DA]/ [EA]/[DA]/[EA]/[DA]/ [EA]/[DA]/[EA]/[DA]/ | %163
 [EA]/[DA]/[EA]/[DA]/ [EA]/[DA]/[EA]/[DA]/ [EA]/[DA]/[EA]/[DA]/ [EA]/D/[EA]/D/ |!p! BBBB BBBB | %165
 cccc cccc | BBBB BBBB |!pp! AAAA AAAA | AAAA AAAA | AAAA[K:bass] [E,A,CE]4 | %170
[K:treble] C/[I:staff +1]A,/[I:staff -1]E/C/ E/C/E/C/ E/C/E/C/ E/C/E/C/ | !fermata![A,A]8 |] %172
V:3
!ped! z6 | z6 | z6 | z6 | z6 | z6 | z6 | z6 | z6 | z6 | z6 | z6 | [F,,C,F,]6 | [F,,C,F,]6 | %14
 [G,,D,G,]6 | [G,,D,G,]6 | [A,,E,A,]6 | [A,,E,A,]6 | [G,,D,G,]6 | [G,,D,G,]6 | [F,,C,F,]6 | %21
 [F,,,F,,]6 | [G,,,G,,]6 | [G,,,G,,]6 | [A,,,A,,]6 | [A,,,A,,]4 [A,,,A,,]G,,,- | %26
 [G,,,G,,]2 B,2 G,>D, | G,,/D,/G,/D,/ B,,/D,/B,,/G,,/ D,,G,,, | %28
 [F,,,C,,]F,, [F,C][A,E] [F,C][A,E] | [F,,C,]F, [F,C][A,E] [F,C][A,E] | %30
 [G,,,G,,][G,D] [B,E][G,D] [B,E][G,D] | [G,,,G,,][G,D] [B,E][G,D] [B,E][G,D] | %32
 [A,,,A,,][A,C] [A,E][A,C] [A,E][A,C] | [A,,,A,,][A,C] [A,E][A,C] [A,E][A,C] | %34
 [G,,,G,,][G,D] [B,E][G,D] [B,E][G,D] | [B,E][G,D] [B,E][G,D] G,,G,,, | %36
 [F,,,F,,][F,C] [A,E][F,C] [A,E][F,C] | [F,,,F,,][F,C] [A,E][F,C] [A,E][F,C] | %38
 [G,,,G,,][G,D] [B,E][G,D] [B,E][G,D] | [G,,,G,,][G,D] [B,E][G,D] [B,E][G,D] | %40
"^cresc." [A,,,A,,][A,C] [A,E][A,C] [A,E][A,C] | [A,,,A,,][A,C] [A,E][A,C] A,[A,,E,] | %42
 [G,,,D,,G,,][G,D] [B,E][G,D] [B,E][G,D] | [B,E][G,D] [B,E][G,B,D] G,G,, | [F,,C,][F,C] A,F CA, | %45
[M:4/4] CA,F,C, F,,C,F,,C, |[M:3/4] E,,,/E,,/E,,/D,/[K:treble] x2 z2 |!8va(! d''6!8va)! | %48
[K:bass] E,,B,,/E,/ ^G,/4B,/4D/4[I:staff -1]E/4^G/4B/4d/4B/4[I:staff +1][K:treble] d/4^g/4b/4d'/4!8va(![I:staff -1]e'/4^g'/4b'/4d''/4 | %49
 !fermata!e''6!8va)! ||[M:12/8][I:staff +1][K:bass] z12 | [G,B,C]12 | [F,A,C]12 | %53
 [G,B,C]6 [G,B,C]3 [G,,G,]3 |"^cresc. poco a poco" [A,,,A,,]3 [A,C]3- [A,C]3 [A,C]3 | %55
 [G,B,C]6- [G,B,C]3 [G,B,C]3 | [F,,,F,,]6- [F,,,F,,]3 [F,,,F,,]3 | %57
 [G,,,D,,G,,]6 [G,,,D,,G,,]3 [G,B,D]3 |"^pesante" [A,,,E,,A,,]3 [A,CE]3 [A,,,E,,A,,]3 [A,CE]3 | %59
 [G,,,D,,G,,]3 [G,B,DE]3 [G,,,D,,G,,]3 [G,B,DE]3 | %60
 [A,,,E,,A,,]3 [F,A,CE]3 [A,,,E,,A,,]3 [F,A,CE]3 | %61
 [G,,,D,,G,,]3 [G,B,DE]3 [G,,,D,,G,,]3 [G,B,DE]3 | [A,,,E,,A,,]3 [A,CE]3 [A,,,E,,A,,]3 [A,CE]3 | %63
 [G,,,D,,G,,]3 [G,B,DE]3 [G,,,D,,G,,]3 [G,B,DE]3 | %64
 [A,,,E,,A,,]3 [F,A,CE]3 [A,,,E,,A,,]3 [F,A,CE]3 | %65
 [G,,,D,,G,,]3 [G,B,DE]3 [G,,,D,,G,,]3 [G,B,DE]2 G,, | %66
 [F,,C,]F,A, CF[F,C] [F,,C,]F,C [A,F]C[F,,F,] | [G,,,D,,]G,,B,, D,G,A, B,DG [B,D]G,D, | %68
 [A,,,E,,]A,,[A,,E,] A,A,,B, z E,C E,A,E, | z G,A, G,E,G, E,A,G, E,G,,G,,, | %70
 [F,,,C,,]F,,[F,,C,] F,,F,[F,,F,] [F,,C,]F,[F,,F,] [F,,C,]F,[F,,F,] | %71
 [G,,D,]G,[G,D] [B,E][G,D][B,E] [G,,D,]G,[G,D] [B,E][G,D][B,E] | %72
 [A,,A,][A,C][A,E] [A,E][A,E][A,,A,] [A,,A,][A,C][A,CE] [A,CE][A,CE][A,,A,] | %73
 [G,,G,][G,D][B,E] [DE][G,B,DE][G,,G,] [G,,G,][G,D][B,E] [DE][G,B,DE][G,,G,] | %74
 [F,,F,][F,C][A,E] [F,C][A,E][F,C] [A,E][F,C][A,E] [F,C][A,E][F,C] | %75
"^dim." [B,E][G,D][B,E] [B,E][G,D][B,E] [G,D][B,E][G,D] [B,E][G,D][B,E] | %76
[K:treble] [A,E][A,C][A,E] [A,E][A,E][A,E] z EE EEE | GEG EGE z EG EzE ||[M:3/4] [F,CA]6- | %79
 [F,CA]6 | [G,B]6- | [G,B]6 | [A,c]6- | [A,c]6 | [G,EB]6- | [G,EB]6 | [F,A]2 c2 [Ae]2 | %87
 [Fce]2 [Ace]2 [Fce]2 | (9:8:6G3/4A3/4B3/4 d3/4e3/4d3/4 z2/3 (9:8:2A3/4B3/4 | %89
 (9:8:6G3/4A3/4B3/4 d3/4e3/4d3/4 z2/3 (9:8:2A3/4d3/4 | %90
 (9:8:6A3/4B3/4c3/4 e3/4c3/4B3/4 z2/3 (9:8:2B3/4c3/4 | %91
 (9:8:6A3/4B3/4c3/4 e3/4c3/4B3/4 z2/3 (9:8:2c3/4B3/4 | %92
 (9:8:6G3/4B3/4d3/4 e3/4d3/4B3/4 z2/3 (9:8:2e3/4d3/4 | %93
 (9:8:6G3/4d3/4B3/4 e3/4d3/4B3/4 z2/3 (9:8:2d3/4B3/4 | %94
 (9:8:6F3/4G3/4A3/4 c3/4e3/4c3/4 z2/3 (9:8:2c3/4A3/4 | %95
 (9:8:6F3/4G3/4A3/4 c3/4e3/4c3/4 z2/3 (9:8:2G3/4A3/4 | %96
 (9:8:6G3/4A3/4B3/4 d3/4e3/4d3/4 z2/3 (9:8:2A3/4G3/4 | %97
 (9:8:6A3/4B3/4d3/4 e3/4d3/4B3/4 z2/3 (9:8:2G3/4B3/4 | %98
 (9:8:6A3/4B3/4c3/4 e3/4c3/4B3/4 z2/3 (9:8:2c3/4B3/4 | %99
 (9:8:6A3/4c3/4B3/4 c3/4e3/4c3/4 z2/3 (9:8:2A3/4B3/4 | %100
 (9:8:6G3/4B3/4d3/4 e3/4d3/4B3/4 z2/3 (9:8:2d3/4B3/4 | %101
 (9:8:6G3/4B3/4d3/4 e3/4d3/4B3/4 z2/3 (9:8:2B3/4d3/4 | %102
 (9:8:6F3/4"^dim. e rall."G3/4A3/4 c3/4f3/4g3/4!8va(! z2/3 (9:8:2c'3/4f'3/4 | %103
[M:4/4] (3:2:2g' a'2!8va)! z2 z4 |[K:bass] (3G,,D,G,[K:treble] (3A,B,D (3GAB (3deg | %105
 (3:2:2a b2 z4 z2 ||[M:3/4] z6 | z6 | z2 z2 A2- | A6 | B6- | B6 | (A2 B2 c2 | B2 A2 B2 | %114
[M:4/4] c8 | B6)[K:bass] G,,2 |[M:3/4] F,,,F,,"^espress." F,,F, G,A, | A,C EC A,F, | %118
 G,,D, G,A, B,D | ED B,A, G,D, | [A,,,A,,]B, CE CB, | A,,E, CB, A,E, | [G,,G,]D, A,D, G,D, | %123
 G,,D, A,G, D,G,, | !>![F,,,C,,]F,, F, C2 F, | !>![F,,,C,,]F,, F,C F,F,, | %126
 !>!G,,,G,, G,B, G,[G,,E,] | !>!G,,,G,, G,,G, E,[G,,,G,,] | %128
"^marcato" [A,,,E,,]A,, [A,,E,][A,,E,A,] [A,,E,][A,,A,] | %129
 [A,,,E,,]"^cresc."A,, [A,,E,]2 [A,,E,A,][A,,,A,,] | [G,,,D,,]G,, [G,,D,]B,, [G,,D,]G, | %131
 (3A,/G,/D,/(3!6!B,,/G,/D,/ (3B,,/A,/G,/(3!6!D,/B,,/G,,/ D,,G,,, || %132
 [F,,,F,,](3F,/A,/C/ (3E/C/A,/(3D/C/A,/ (3D/C/A,/(3G,/F,/C,/ | %133
 (3F,,/C,/F,/(3A,/B,/C/ (3D/C/!6!D/(3C/A,/G,/ (3F,/C,/!6!A,,/(3F,,/C,,/F,,,/ | %134
 G,,,/D,,/G,,/G,,/ (3B,,/D,/G,/(3B,/D/E/ (3D/E/D/(3B,/D/B,/ | %135
 (3E/D/B,/(3D/B,/D/ (3E/D/B,/(3G,/D,/B,,/ (3G,/D,/B,,/(3G,,/E,,/G,,/ | %136
 (3A,,,/E,,/A,,/(3C,/E,/A,/ (3B,/C/E/(3C/B,/A,/ (3E/C/B,/(3A,/E,/A,/ | %137
 (3A,,/E,/A,/(3B,/C/E/ (3C/B,/A,/(3E,/A,/E,/ (3C,/A,,/E,,/(3A,,/E,,/A,,,/ | %138
 (3G,,,/D,,/G,,/(3B,,/D,/E,/ G,2 [G,B,DE]2 | [G,,E,G,]2 [G,,,D,,G,,]2 [G,,,G,,]2 | %140
 [F,,,C,,F,,]2 .[F,A,CE]2 .[F,A,CE]2 | [F,,C,F,]2 .[F,A,CE]2 .[F,A,CE]2 | %142
 [G,,,D,,G,,]2 .[G,B,DE]2 .[G,B,DE]2 | [G,,,G,,]2 .[G,B,DE]2 .[G,B,DE]2 | %144
 [A,,,E,,A,,]2 .[A,CE]2 .[A,CE]2 | [A,,,A,,]2 .[A,CE]2 .[A,CE]2 | [G,,,G,,]2 [G,B,DE]2 [G,B,DE]2 | %147
"^dim. e rall." [G,B,DE]2 [G,,E,G,]2 G,,,2 |[M:4/4] [F,,,F,,]2 [F,A,CF]2 [CE]2 D2 | %149
 [F,,C,]2 [F,,,F,,]2 [F,,,F,,]2 F,,,2 | %150
 [E,,,E,,]2 (3E,,/B,,/E,/[I:staff -1](3A,/B,/D/[I:staff +1][K:treble] E/4A/4B/4d/4[I:staff -1]a/4b/4d'/4e'/4[I:staff +1] x2 | %151
[K:bass] !>![E,,,E,,]4[K:treble] [Ee]4 ||[M:3/4][K:bass] !>![E,F,A,C]6 | !>![G,B,DE]6 | %154
 !>![G,A,CE]6 | !>![E,G,B,D]6 | !>![E,F,A,C]6 | !>![D,G,B,D]6 | !>![A,B,CE]6 | !>![D,E,G,B,]6 | %160
 [F,,,F,,]2"^dim." !tenuto![F,,F,]/!tenuto![F,A,]/[F,C]/[F,A,]/ [F,C]/[F,A,]/[F,C]/[F,A,]/ | %161
 [F,C]/[F,A,]/[F,C]/[F,A,]/ [F,C]/[F,A,]/[F,C]/[F,A,]/ [F,C]/[F,A,]/[F,C]/[F,A,]/ | %162
[M:4/4] [G,C]/[G,B,]/[G,C]/[G,B,]/ [G,C]/[G,B,]/[G,C]/[G,B,]/ [G,C]/[G,B,]/[G,C]/[G,B,]/ [G,C]/[G,B,]/[G,C]/[G,B,]/ | %163
 [A,C]/B,/[A,C]/B,/ [A,C]/B,/[A,C]/B,/ [A,C]/B,/[A,C]/B,/ [A,C]/B,/[A,C]/A,/ | %164
 [G,B,]/[G,C]/[G,B,]/[G,C]/ [G,B,]/[G,C]/[G,B,]/[G,C]/ [G,B,]/[G,C]/[G,B,]/[G,C]/ [G,B,]/[G,C]/[G,B,]/[G,B,]/ | %165
 [F,A,C]/[F,A,C]/[F,B,]/[F,A,C]/ [F,B,]/[F,C]/[F,B,]/[F,C]/ [F,B,]/[F,C]/[F,B,]/[F,C]/ [F,B,]/[F,C]/[F,B,]/[F,C]/ | %166
 [G,B,]/[G,B,]/[G,B,]/[G,B,]/ [G,B,]/[G,B,]/[G,B,]/[G,B,]/ [G,B,]/[G,B,]/[G,B,]/[G,B,]/ [G,B,]/[G,B,]/[G,B,]/[G,B,]/ | %167
 [F,A,C]/[F,A,C]/[F,A,C]/[F,A,C]/ [F,A,C]/[F,A,C]/[F,A,C]/[F,A,C]/ [F,A,C]/[F,A,C]/[F,A,C]/[F,A,C]/ [F,A,C]/[F,A,C]/F,/F,,/ | %168
 [F,,,F,,]/[F,,,F,,]/[F,,,F,,]/[F,,,F,,]/ [F,,,F,,]/[F,,,F,,]/[F,,,F,,]/[F,,,F,,]/ [G,,,G,,]/[G,,G,]/[G,,G,]/[G,,G,]/ [G,,G,]>[G,,G,] | %169
 [G,,G,]2 [F,,F,]2 [A,,,,A,,,]>E,, A,,/C,/E,/A,/ | z4"^smorz.." [A,,,A,,]4- | %171
 !fermata![A,,,A,,]8!ped-up! |] %172
V:4
 x6 | x6 | x6 | x6 | x6 | x6 | x6 | x6 | x6 | x6 | x6 | x6 | EC EC EC | EC EC EC | ED ED ED | %15
 ED ED ED | EC EC EC | EC EC EC | ED ED ED | ED ED ED | EC EC EC | EC EC EC | ED ED ED | ED ED ED | %24
 EC EC EC | EC EC EC | GD GE GD | x6 | x6 | x6 | x6 | x6 | x6 | x6 | x6 | x6 | x6 | x6 | x6 | x6 | %40
 x6 | x6 | x6 | x6 | x6 |[M:4/4] x6[K:bass] x2 |[M:3/4] x4[K:treble] x!8va(! x!8va)! | x6 | x6 | %49
 x6 || %50
[M:12/8] x (3c/A/E/(3c/A/E/ (3c/A/E/(3c/A/E/(3c/A/E/ (3c/A/E/(3c/A/E/(3c/A/E/ (3c/A/E/(3c/A/E/(3c/A/E/ | %51
 (3c/A/E/(3c/A/E/(3c/A/E/ (3c/A/E/(3c/A/E/(3c/A/E/ (3c/A/E/(3c/A/E/(3c/A/E/ (3c/A/E/(3c/A/E/(3c/A/E/ | %52
 (3c/A/E/(3c/A/E/(3c/A/E/ (3c/A/E/(3c/A/E/(3c/A/E/ (3c/A/E/(3c/A/E/(3c/A/E/ (3c/A/E/(3c/A/E/(3c/A/E/ | %53
 (3B/A/E/(3B/A/E/(3B/A/E/ (3B/A/E/(3B/A/E/(3B/A/E/ (3c/A/E/(3c/A/E/(3c/A/E/ ddd | eee eee eee eee | %55
 eee eee eee eee | eee eee eee ddd | eee eee eee ggg | aaa e'e'e' aaa e'e'e' | %59
 bbb e'e'e' bbb e'e'e' | c'c'c' e'e'e' c'c'c' e'e'e' | d'd'd' e'e'e' d'd'd' e'e'e' | %62
 aaa e'e'e' aaa e'e'e' | bbb e'e'e' bbb e'e'e' | c'c'c' e'e'e' c'c'c' e'e'e' | %65
 d'e'd' e'd'e' d'e'g'!8va(! g'a'b'!8va)! |!8va(! c''c''c'' c''c''c'' c''c''c'' b'b'b' | %67
 a'a'a' g'g'g' g'g'g' g'g'f'!8va)! | e'e'e' e'e'e' d'd'd' e'e'e' | e'e'e' d'd'd' e'e'e' d'd'd' | %70
!8va(! e'a'a'!8va)! e'c'a ae'e' c'c'a | bbe' e'e'b bbe' e'e'b | c'c'e' e'e'c' c'c'e' e'e'c' | %73
 d'd'e' e'e'd' d'd'e' e'e'b | aaa aaa aaa aaa | aaa aaa aaa aaa | aaa aaa aaa aaa | %77
 bbb bbb (3b/e/B/(3b/e/B/(3b/e/B/ (3b/e/B/(3b/e/B/(3b/e/B/ ||[M:3/4][K:treble+8] x6 | x6 | x6 | %81
 x6 | x6 | x6 | x6 | x6 | x6 | x6 | x6 | x6 | x6 | x6 | x6 | x6 | x6 | x6 | x6 | x6 | x6 | x6 | %100
 x6 | x6 | x6 |[M:4/4] x8 | x8 | x2[K:treble] x6 ||[M:3/4] x6 | x6 | x6 | x6 | x6 | x6 | x6 | x6 | %114
[M:4/4] x8 | x8 |[M:3/4] x6 | x6 | x6 | x6 | x6 | c2 Bc Bc | d2 GA BG | GD GE EB, | EA, AE EC | %125
 EA, AE EC | EB, GE EB, | EB, GE EB, | [CE][CE] [EA][EA] [CE][CE]/[CE]/ | %129
 [CE][CE]/[CE]/ [EA][EA]/[EA]/ [CE][CE]/[CE]/ | %130
 [DEG][DEG]/[DEG]/ [EGB](3[EGB]/[EGB]/[EGB]/ [DGB](3[DGB]/[DGB]/[DGB]/ | d2 e2 g2 || a2 e'2 a2 | %133
 a2 e'2 a2 | b2 e'2 (6:4:6B/e/d/B/d/e/ | (6:4:6B/e/d/B/d/e/ (6:4:6e/b/g/e/g/b/ (6:4:6B/g/e/B/e/g/ | %136
 (6:4:6c/a/e/c/e/a/ (6:4:6e/b/a/e/a/b/ (6:4:6A/e/c/A/c/e/ | %137
 (6:4:6c/a/e/c/e/a/ (6:4:6e/b/a/e/a/b/ (6:4:6d/b/a/d/a/b/ | %138
 (6:4:6d/b/a/d/a/b/ (6:4:6e/b/a/e/a/b/ (6:4:6d/b/a/d/a/b/ | %139
 (6:4:6d/b/a/d/a/b/ (6:4:6e/b/g/e/g/b/ (6:4:6g/e'/b/g/b/e'/ | %140
!8va(! (6:4:6a/e'/c'/a/c'/e'/ (6:4:6e'/c''/a'/e'/a'/c''/ (6:4:6a/e'/c'/a/c'/e'/ | %141
 (6:4:6a/e'/c'/a/c'/e'/ (6:4:6e'/c''/a'/e'/a'/c''/ (6:4:6a/e'/c'/a/c'/e'/ | %142
 (6:4:6b/e'/d'/b/d'/e'/ (6:4:6e'/b'/g'/e'/g'/b'/ (6:4:6b/g'/e'/b/e'/g'/ | %143
 (6:4:6b/e'/d'/b/d'/e'/ (6:4:6e'/b'/g'/e'/g'/b'/ (6:4:6b/g'/e'/b/e'/g'/ | %144
 (6:4:6c'/a'/e'/c'/e'/a'/ (6:4:6e'/b'/a'/e'/a'/b'/ (6:4:6c'/a'/e'/c'/e'/g'/ | %145
 (6:4:6c'/a'/e'/c'/e'/a'/ (6:4:6e'/c''/a'/e'/a'/c''/ (6:4:6c'/a'/e'/c'/e'/g'/ | %146
 (6:4:6d'/g'/e'/d'/e'/g'/ (6:4:6e'/b'/g'/e'/g'/b'/ (6:4:6d'/b'/g'/d'/g'/b'/!8va)! | %147
!8va(! d''/4b'/4g'/4d'/4e''/4b'/4g'/4e'/4 b'/4g'/4e'/4b/4c''/4g'/4e'/4c'/4 a'/4e'/4c'/4a/4b'/4e'/4c'/4b/4!8va)! | %148
[M:4/4]!8va(! (3a'g'f'!8va)! (3e'd'c' (3bag (3fed | (3cBA[K:bass] (3GFE (3DCB, (3A,G,F, | %150
 x3[K:treble] x4!8va(! x!8va)! | x8 ||[M:3/4] x2 E2 C2 | x2 D2 B,2 | x2 E2 C2 | x2 D2 B,2 | %156
!8va(! x2 e2 A2 | x2 e2 B2 | x2 e2 c2 | x2 d2 e2 | x2!8va)! x4 | x6 |[M:4/4] x8 | x8 | %164
 x2 E/D/E/D/ E/D/E/D/ E/D/E/D/ | E/D/E/D/ E/D/E/D/ E/D/E/D/ E/D/E/D/ | %166
 E/D/E/D/ E/D/E/D/ E/D/E/D/ E/D/E/D/ | E/D/E/D/ E/D/E/D/ E/D/E/D/ E/D/E/D/ | %168
 E/D/E/D/ E/D/E/D/ E/D/E/D/ E/D/E/D/ | E/D/E/D/ E/D/E/D/[K:bass] x4 |[K:treble] x8 | x8 |] %172
V:5
 x6 | x6 | x6 | x6 | x6 | x6 | x6 | x6 | x6 | x6 | x6 | x6 | x6 | x6 | x6 | x6 | x6 | x6 | x6 | %19
 x6 | x6 | x6 | x6 | x6 | x6 | x6 | x6 | x6 | x6 | x6 | x6 | x6 | x6 | x6 | x6 | x6 | x6 | x6 | %38
 x6 | x6 | x6 | x6 | x6 | x6 | x6 |[M:4/4] x8 |[M:3/4] x2[K:treble] x4 |!8va(! x6!8va)! | %48
[K:bass] x4[K:treble] x!8va(! x | x6!8va)! ||[M:12/8][K:bass] x12 | x12 | x12 | x12 | x12 | x12 | %56
 x12 | x12 | x12 | x12 | x12 | x12 | x12 | x12 | x12 | x12 | x12 | x12 | x6 A,,3 A,,3 | %69
 G,,6 G,,3 x3 | x12 | x12 | x12 | x12 | x12 | x12 |[K:treble] x6 A,6 | G,6 G,4 G,2 ||[M:3/4] x6 | %79
 x6 | x6 | x6 | x6 | x6 | x6 | x6 | x6 | x6 | x6 | x6 | x6 | x6 | x6 | x6 | x6 | x6 | x6 | x6 | %98
 x6 | x6 | x6 | x6 | x4!8va(! x2 |[M:4/4] x2!8va)! x6 |[K:bass] x2[K:treble] x6 | x8 ||[M:3/4] x6 | %107
 x6 | x6 | x6 | x6 | x6 | x6 | x6 |[M:4/4] x8 | x6[K:bass] x2 |[M:3/4] x6 | x6 | x6 | x6 | x6 | %121
 x6 | x6 | x6 | x6 | x6 | x6 | x6 | x6 | x6 | x6 | x6 || x6 | x6 | x6 | x6 | x6 | x6 | x6 | x6 | %140
 x6 | x6 | x6 | x6 | x6 | x6 | x6 | x6 |[M:4/4] x4 [F,A,]4 | x8 | x4[K:treble] x4 | %151
[K:bass] x4[K:treble] x4 ||[M:3/4][K:bass] !>![F,,,F,,]6 | !>![G,,,G,,]6 | !>![A,,,A,,]6 | %155
 !>![G,,,G,,]6 | !>![F,,,F,,]6 | !>![G,,,G,,]6 | !>![A,,,A,,]6 | !>![G,,,G,,]6 | x6 | x6 | %162
[M:4/4] x8 | x8 | x8 | x8 | x8 | x8 | x8 | x8 | x8 | x8 |] %172

